6-data-storage/01-cookie/cookie-third-party-3.svg

<?xml version="1.0" encoding="UTF-8"?>
<svg width="668px" height="192px" viewBox="0 0 668 192" version="1.1" xmlns="http://www.w3.org/2000/svg" xmlns:xlink="http://www.w3.org/1999/xlink">
    <!-- Generator: sketchtool 61.2 (101010) - https://sketch.com -->
    <title>cookie-third-party-3.svg</title>
    <desc>Created with sketchtool.</desc>
    <g id="data-storage" stroke="none" stroke-width="1" fill="none" fill-rule="evenodd">
        <g id="cookie-third-party-3.svg">
            <rect id="Rectangle-1" stroke="#E8C48E" stroke-width="2" fill="#FFF9EB" x="38" y="48" width="282" height="99"></rect>
            <text id="&lt;img-src=&quot;https://ad" font-family="Helvetica" font-size="14" font-weight="normal" fill="#8A704D">
                <tspan x="42" y="69">&lt;img src="https://ads.com/banner.png"&gt;</tspan>
            </text>
            <text id="other.com" font-family="OpenSans-Bold, Open Sans" font-size="14" font-weight="bold" fill="#8A704D">
                <tspan x="144" y="36">other.com</tspan>
            </text>
            <rect id="Rectangle-1-Copy" stroke="#E8C48E" stroke-width="2" fill="#FFF9EB" x="505" y="48" width="140" height="99"></rect>
            <text id="ads.com" font-family="OpenSans-Bold, Open Sans" font-size="14" font-weight="bold" fill="#8A704D">
                <tspan x="543" y="36">ads.com</tspan>
            </text>
            <path id="Line" d="M321.643432,67.3747042 L322.634364,67.5090679 L485.761,89.628 L486.567496,83.682384 L499.5,92.5 L484.686405,97.5554332 L485.492,91.61 L322.365636,69.4909321 L321.374704,69.3565684 L321.643432,67.3747042 Z" fill="#EE6B47" fill-rule="nonzero"></path>
            <text id="GET-/banner.png" transform="translate(416.568389, 68.381858) rotate(7.000000) translate(-416.568389, -68.381858) " font-family="Helvetica" font-size="14" font-weight="normal" fill="#8A704D">
                <tspan x="361.068389" y="72.8818576">GET /banner.png</tspan>
            </text>
            <text id="cookie:-id=123" transform="translate(410.079569, 93.199054) rotate(7.000000) translate(-410.079569, -93.199054) " font-family="Helvetica" font-size="14" font-weight="normal" fill="#8A704D">
                <tspan x="363.079569" y="97.6990536">cookie: id=123</tspan>
            </text>
            <ellipse id="Oval-6" stroke-opacity="0.572803442" stroke="#EE6B47" stroke-width="2" cx="176" cy="31.5" rx="48" ry="13.5"></ellipse>
        </g>
    </g>
</svg>

<svg xmlns="http://www.w3.org/2000/svg" width="668" height="192" viewBox="0 0 668 192"><defs><style>@import url(https://fonts.googleapis.com/css?family=Open+Sans:bold,italic,bolditalic%7CPT+Mono);@font-face{font-family:&apos;PT Mono&apos;;font-weight:700;font-style:normal;src:local(&apos;PT MonoBold&apos;),url(/font/PTMonoBold.woff2) format(&apos;woff2&apos;),url(/font/PTMonoBold.woff) format(&apos;woff&apos;),url(/font/PTMonoBold.ttf) format(&apos;truetype&apos;)}</style></defs><g id="data-storage" fill="none" fill-rule="evenodd" stroke="none" stroke-width="1"><g id="cookie-third-party-3.svg"><path id="Rectangle-1" fill="#FBF2EC" stroke="#DBAF88" stroke-width="2" d="M38 48h282v99H38z"/><text id="&lt;img-src=&quot;https://ad" fill="#AF6E24" font-family="OpenSans-Regular, Open Sans" font-size="14" font-weight="normal"><tspan x="42" y="70">&lt;img src=&quot;https://ads.com/banner.png&quot;&gt;</tspan></text><text id="other.com" fill="#AF6E24" font-family="OpenSans-Bold, Open Sans" font-size="14" font-weight="bold"><tspan x="144" y="36">other.com</tspan></text><path id="Rectangle-1-Copy" fill="#FBF2EC" stroke="#DBAF88" stroke-width="2" d="M505 48h140v99H505z"/><text id="ads.com" fill="#AF6E24" font-family="OpenSans-Bold, Open Sans" font-size="14" font-weight="bold"><tspan x="543" y="36">ads.com</tspan></text><path id="Line" fill="#C06334" fill-rule="nonzero" d="M321.643 67.375l.991.134 163.127 22.119.806-5.946L499.5 92.5l-14.814 5.055.806-5.945-163.126-22.12-.991-.133.268-1.982z"/><text id="GET-/banner.png" fill="#AF6E24" font-family="OpenSans-Regular, Open Sans" font-size="14" font-weight="normal" transform="rotate(7 416.568 68.382)"><tspan x="361.068" y="73.882">GET /banner.png</tspan></text><text id="cookie:-id=123" fill="#AF6E24" font-family="OpenSans-Regular, Open Sans" font-size="14" font-weight="normal" transform="rotate(7 410.08 93.2)"><tspan x="363.08" y="98.699">cookie: id=123</tspan></text><ellipse id="Oval-6" cx="176" cy="31.5" stroke="#C06334" stroke-width="2" rx="48" ry="13.5"/></g></g></svg>
